X:60
T:An Old German Tune
T:John Malchair's Third Collection of Tunes
%%VWML:Malchair-3619-p60
F:https://www.vwml.org/record/Malchair/3619/p60
F:www.vwml.org/topics/historic-dance-and-tune-books/Malchair
Z:Eric Conrad Feb 2020
M:C
L:1/8
%%score {A B}
V:A
V:B octave=-2
K:C
V:A
edcB c/B/c/d/ c2 | dd dc/d/ e2e2 | edcB cB/c/ AB | cB/A/ {c/}BA/^G/ A2A2 ||
V:B
A2e2 a2A2 | G2g2 c2c'2 | c'ba^g aefd | e2E2 A2a2 ||
V:A
=GG GA/B/ ccc2 | dd dc/d/ e2e2 | edcB cB/c/ AB | cB/A/ BA/^G/ A2A2 |]
V:B
g2f2 e2c2 | G2g2 c'2c2 | c'ba^g aefd | e2E2 A2A2 |]
W:this tune was given to me by my friend, Mr. Fischer. It is certainly Nerwegia


